X:1
T:Sing Sally O!
M:4/4
L:1/8
K:F
 c=B| A3/2 G/2 A3/2 =B/2 c3/2- B/2 cA| G2 E3/2- D/2E-F G2| A2 A3/2 G/2 A4|\
 G2 A3/2 G/2 D2 c=B| A3 =B c3 A| G2 E3/2- D/2E-F G2| A2 A3/2 G/2 A4|\
 G2 A3/2 G/2 D2||

